src/assets/images/users.svg

<svg width="22" height="17" viewBox="0 0 22 17" fill="none" xmlns="http://www.w3.org/2000/svg">
<path d="M10.7809 10.9717L10.8295 11.0592C10.8282 11.0598 10.827 11.0605 10.8257 11.0611L10.7809 10.9717ZM10.7809 10.9717C10.8108 10.9567 10.8408 10.942 10.8707 10.9274L10.8683 10.9231L10.7809 10.9717ZM19.2882 10.4376L19.2877 10.4374C18.6974 10.1973 18.2366 10.0011 17.9162 9.73342C17.6117 9.47893 17.4326 9.15794 17.4084 8.6562C17.6451 8.35313 17.7986 7.97712 17.8978 7.64315C17.9958 7.31349 18.0427 7.01819 18.0633 6.86117C18.4558 6.2465 18.6135 5.6202 18.5473 5.18821C18.8775 4.39117 18.6457 3.74349 18.4261 3.23023C18.2437 2.79194 18.1121 2.42115 18.2809 1.94649L18.3906 1.65426L18.421 1.57334L18.3453 1.53157L18.0153 1.34938L18.0154 1.34919L18.0094 1.34639C16.8165 0.787077 15.4665 0.70846 14.4811 1.12481L14.4811 1.12474L14.4774 1.12644C13.8423 1.42519 13.3485 1.91218 13.1145 2.58762C12.7367 2.90253 12.5609 3.36163 12.5005 3.82113C12.4402 4.27953 12.4932 4.7492 12.5839 5.105C12.478 5.5783 12.6742 6.21148 13.0676 6.826C13.0882 6.98263 13.1351 7.27789 13.2331 7.60758C13.3321 7.94109 13.4853 8.31662 13.7213 8.61945C13.6803 9.12247 13.5005 9.44423 13.2003 9.69863C12.8846 9.96607 12.433 10.1623 11.8432 10.4021L11.8273 10.4085C11.4663 10.5531 11.1018 10.699 10.7361 10.8823L10.6428 10.9291L10.6935 11.0203L11.0604 11.6803L11.109 11.7676L11.1964 11.7192C11.4106 11.6004 11.6199 11.5151 11.8355 11.4273C11.9469 11.3819 12.06 11.3358 12.1762 11.2841C12.7413 11.0654 13.3623 10.8217 13.8399 10.4056C14.3245 9.98346 14.6578 9.38776 14.6578 8.47869V8.33173V8.29031L14.6286 8.26102L14.5186 8.15102C14.3348 7.96723 14.2032 7.67476 14.1177 7.38242C14.0326 7.09151 13.9978 6.81684 13.9978 6.68174V6.57173V6.54788L13.9871 6.52659L13.9501 6.45355L13.9508 6.45322L13.9441 6.44322C13.729 6.12054 13.6145 5.85478 13.5581 5.65967C13.5299 5.56202 13.5164 5.48287 13.5119 5.4237C13.5077 5.3698 13.5115 5.33824 13.5144 5.32518L13.5835 5.18625L13.5999 5.15317L13.5909 5.11735L13.554 4.97039L13.5542 4.97033L13.5519 4.9632C13.4649 4.70201 13.4206 4.3406 13.4558 4.00622C13.4913 3.66817 13.6048 3.38458 13.8062 3.24447L13.9153 3.172L13.9476 3.1506L13.957 3.11308L13.9936 2.96773C14.1331 2.48177 14.4069 2.14055 14.8894 1.93365L14.8895 1.93371L14.8928 1.93212C15.5387 1.62633 16.4281 1.64712 17.2688 1.97766C17.1823 2.59108 17.3669 3.06781 17.5437 3.4909C17.5559 3.52513 17.568 3.55866 17.5799 3.59158C17.7489 4.05943 17.8734 4.40387 17.6218 4.87462L17.6213 4.87432L17.6172 4.88468L17.5441 5.06773L17.5275 5.10926L17.5474 5.14931L17.6185 5.29222C17.6188 5.29411 17.6196 5.29839 17.6202 5.30577C17.6214 5.32076 17.6216 5.34271 17.6196 5.37184C17.6155 5.42988 17.603 5.51079 17.5767 5.6114C17.5245 5.81183 17.4188 6.08629 17.223 6.40748L17.1505 6.51365L17.1331 6.53916V6.57003V6.67374C17.1144 6.82135 17.0783 7.09568 16.999 7.3821C16.9178 7.67552 16.7951 7.96656 16.6124 8.14932L16.5024 8.25932L16.4731 8.28861V8.33003V8.47698C16.4731 9.38606 16.8065 9.98176 17.291 10.4039C17.7693 10.8206 18.3913 11.0644 18.957 11.2833C19.5285 11.5045 20.0441 11.71 20.4373 12.0368C20.8038 12.3416 21.0671 12.7552 21.1538 13.4H14.667H14.567V13.5V14.2331V14.3331H14.667H22H22.1V14.2331V13.8661C22.1 12.7212 21.7041 11.9794 21.1466 11.4649C20.595 10.9558 19.8906 10.675 19.2882 10.4376Z" fill="#DF18FF" stroke="#DF18FF" stroke-width="0.2"/>
<path d="M7.22392 1.52085C6.14637 1.52085 5.53815 2.03195 5.22969 2.33764C4.2622 2.58717 3.75817 3.12827 3.49683 3.77942C3.24049 4.41807 3.21981 5.1586 3.20167 5.80797L3.20094 5.83421C3.20094 5.83435 3.20093 5.83448 3.20093 5.83462C3.18236 6.35064 3.16407 6.83441 3.06168 7.24854C2.96036 7.65836 2.77923 7.98887 2.4423 8.20904L2.11541 8.39037L2.02052 8.443L2.08071 8.53328L2.3007 8.86326C2.81691 9.63803 3.96456 10.3622 5.15284 10.7086C4.74433 11.862 3.75589 12.2426 2.68054 12.6366C2.04187 12.855 1.34551 13.0982 0.811165 13.5472C0.269578 14.0023 -0.1 14.6633 -0.1 15.7V16.0669V16.1669H0H13.933H14.033V16.0669V15.7C14.033 14.6633 13.6635 14.0025 13.127 13.5474C12.5974 13.0982 11.9104 12.8547 11.2908 12.6359C11.2748 12.63 11.2589 12.6242 11.243 12.6183C10.1834 12.2304 9.21975 11.8775 8.81722 10.708C10.0058 10.3617 11.153 9.63731 11.6701 8.86245L11.6702 8.8624L11.8902 8.5324L11.9504 8.44212L11.8555 8.38949L11.528 8.20784C11.2099 8.00594 11.0004 7.64812 10.8478 7.1812C10.695 6.71363 10.6045 6.15366 10.5127 5.56543L10.5126 5.56442C10.5081 5.53789 10.5037 5.51124 10.4993 5.48447C10.3571 4.62867 10.1955 3.65602 9.75846 2.89124C9.53166 2.49434 9.22924 2.15024 8.81487 1.90596C8.40045 1.66164 7.88033 1.52085 7.22392 1.52085ZM13.0804 15.233H0.885611C0.972968 14.723 1.21322 14.4009 1.55226 14.1586C1.89855 13.9112 2.34679 13.7471 2.85636 13.5606C2.8931 13.5472 2.93015 13.5336 2.96751 13.5199L2.96788 13.5198C2.98244 13.5144 2.99702 13.509 3.01163 13.5035C3.63804 13.2708 4.31282 13.0201 4.88621 12.5843C5.47744 12.135 5.95844 11.4914 6.1837 10.4777L6.18372 10.4778L6.18415 10.4756L6.2572 10.1086L6.27672 10.0105L6.17865 9.99102L5.81169 9.91797L5.81169 9.91796L5.81035 9.91771C4.87991 9.74568 3.88295 9.20815 3.33135 8.66185C3.6876 8.30647 3.87773 7.86429 3.9834 7.39758C4.09456 6.90659 4.1137 6.38085 4.13149 5.89253L4.1321 5.87577H4.13211L4.13214 5.87459C4.1507 5.11934 4.1882 4.52532 4.38069 4.08331C4.47559 3.86541 4.60774 3.68607 4.79419 3.54352C4.98132 3.40045 5.22786 3.29085 5.55633 3.21987L5.55646 3.22048L5.56705 3.21692L5.67705 3.17997L5.69931 3.17249L5.71592 3.15589L5.78896 3.08284L5.78946 3.08234C6.04114 2.83066 6.41967 2.45213 7.22129 2.45213C7.65914 2.45213 7.99995 2.52809 8.27152 2.66846C8.54227 2.8084 8.75076 3.01572 8.91924 3.2893C9.26016 3.84286 9.43195 4.65661 9.6157 5.70562C9.70696 6.27246 9.79964 6.84743 9.95778 7.36815C10.106 7.85628 10.3138 8.30419 10.6385 8.65853C10.0876 9.20587 9.0885 9.7445 8.15606 9.91772L8.15481 9.91797L7.78785 9.99102L7.68977 10.0105L7.7093 10.1086L7.78234 10.4756L7.78243 10.476C7.98903 11.491 8.47062 12.1351 9.06674 12.5845C9.63655 13.0141 10.3094 13.2639 10.9286 13.4938C10.952 13.5025 10.9754 13.5111 10.9986 13.5198L10.9991 13.5199L11.0071 13.5229C11.5578 13.7247 12.0443 13.9029 12.4139 14.1714C12.7533 14.4178 12.993 14.74 13.0804 15.233Z" fill="#DF18FF" stroke="#DF18FF" stroke-width="0.2"/>
</svg>

<svg xmlns="http://www.w3.org/2000/svg" width="22" height="17" fill="none"><path fill="#DF18FF" stroke="#DF18FF" stroke-width=".2" d="m10.78 10.972.05.087-.004.002-.045-.09Zm0 0 .09-.045-.002-.004-.087.049Zm8.508-.534c-.59-.24-1.051-.437-1.372-.705-.304-.254-.483-.575-.508-1.077.237-.303.39-.679.49-1.013.098-.33.145-.625.165-.782.393-.614.55-1.24.484-1.673.33-.797.099-1.445-.12-1.958-.183-.438-.315-.809-.146-1.284l.11-.292.03-.08-.076-.042-.33-.183-.006-.003c-1.192-.559-2.543-.638-3.528-.221l-.004.001c-.635.3-1.129.786-1.363 1.462-.377.315-.553.774-.614 1.233-.06.459-.007.928.084 1.284-.106.473.09 1.106.484 1.721.02.157.067.452.165.782.1.333.252.709.488 1.011-.04.503-.22.825-.52 1.08-.316.267-.768.463-1.358.703l-.016.007c-.36.144-.725.29-1.09.473l-.094.047.05.091.367.66.049.088.087-.049c.215-.119.424-.204.64-.292.11-.045.224-.091.34-.143.565-.219 1.186-.462 1.664-.878.485-.423.818-1.018.818-1.927V8.29l-.03-.029-.11-.11c-.183-.184-.315-.476-.4-.769a2.844 2.844 0 0 1-.12-.7v-.134l-.01-.021-.038-.073-.006-.01a2.9 2.9 0 0 1-.386-.784 1.197 1.197 0 0 1-.046-.236.362.362 0 0 1 .002-.099l.07-.139.016-.033-.01-.036-.036-.147-.002-.007a2.411 2.411 0 0 1-.096-.957c.035-.338.149-.621.35-.762l.11-.072.032-.021.009-.038.037-.145c.14-.486.413-.827.895-1.034l.004-.002c.646-.306 1.535-.285 2.376.046-.087.613.098 1.09.275 1.513l.036.1c.169.468.293.813.042 1.284l-.005.01-.073.183-.017.041.02.04.072.143.001.014a.462.462 0 0 1 0 .066 1.351 1.351 0 0 1-.043.24c-.053.2-.158.474-.354.795l-.072.107-.018.025v.135a5.023 5.023 0 0 1-.134.708c-.081.294-.204.585-.387.767l-.11.11-.029.03v.188c0 .91.334 1.505.818 1.927.478.417 1.1.66 1.666.88.572.22 1.087.426 1.48.753.367.305.63.718.717 1.363h-6.587v.933H22.1v-.467c0-1.145-.396-1.887-.953-2.401-.552-.51-1.256-.79-1.859-1.027Z"/><path fill="#DF18FF" stroke="#DF18FF" stroke-width=".2" d="M7.224 1.52c-1.078 0-1.686.512-1.994.818-.968.25-1.472.79-1.733 1.441-.257.64-.277 1.38-.295 2.029l-.001.026c-.019.517-.037 1-.14 1.415-.1.41-.282.74-.619.96l-.327.181-.094.053.06.09.22.33c.516.775 1.664 1.5 2.852 1.846-.409 1.153-1.397 1.534-2.472 1.928-.64.218-1.335.461-1.87.91C.27 14.002-.1 14.663-.1 15.7v.467h14.133V15.7c0-1.037-.37-1.697-.906-2.153-.53-.449-1.217-.692-1.836-.911l-.048-.018c-1.06-.388-2.023-.74-2.426-1.91 1.189-.346 2.336-1.07 2.853-1.846l.22-.33.06-.09-.095-.053-.327-.181c-.318-.202-.528-.56-.68-1.027-.153-.467-.244-1.027-.335-1.616a15.864 15.864 0 0 1-.014-.08c-.142-.856-.304-1.829-.74-2.594a2.619 2.619 0 0 0-.944-.985c-.415-.244-.935-.385-1.591-.385Zm5.856 13.713H.886a1.56 1.56 0 0 1 .666-1.074c.347-.248.795-.412 1.304-.598l.112-.041.044-.016c.626-.233 1.3-.484 1.874-.92.591-.449 1.072-1.093 1.298-2.106v-.002l.073-.367.02-.098-.098-.02-.367-.073H5.81c-.93-.172-1.927-.71-2.479-1.256.357-.356.547-.798.652-1.264.112-.491.13-1.017.148-1.505l.001-.017v-.001c.019-.756.056-1.35.249-1.792a1.33 1.33 0 0 1 .413-.54c.187-.143.434-.252.762-.323l.011-.003.11-.037.022-.008.017-.016.073-.073c.252-.252.63-.63 1.432-.63.438 0 .779.075 1.05.215s.48.348.648.621c.341.554.513 1.368.697 2.417.091.566.184 1.141.342 1.662.148.488.356.936.68 1.29-.55.548-1.55 1.087-2.482 1.26h-.001l-.367.073-.098.02.02.098.072.367c.207 1.015.689 1.66 1.285 2.108.57.43 1.242.68 1.862.91l.07.026.008.003c.55.202 1.037.38 1.407.648.34.247.579.569.666 1.062Z"/></svg>
